X:15752
T:Soun (1)
M:2/4
L:1/8
Q:250
C:Stephane Rogowski
R:Bourree
Z:Steve Mansfield
K:C
g>e c(g|g)>e ce|f>d Bf|dB d/c/d/e/|g>e c(g|g)>e cg|c'2b2|e/d/c/d/ e/c/d|
g>e c(g|g)>e ce|f>d Bf|dB d/c/d/e/|g>e c(g|g)>e ce|fe d2|c2 de/d/|:e>d e
(g|g)>f ed|d>c d(f|f)>e dc|e>d e(g|g)>f eg|1a2g2|e/d/c/d/ e/c/d:|2a2g>f|
edc2|
